X:23
T:La passion de notre seigneur jesus christ (vide)
R:Chanson
O:France
B:Le livre des Chansons (Henri Davenson) n°23
Z:<anamnese@caramail.com> -- http://anamnese.fr.st
M:3/4
L:1/4
Q:1/4=80
K:F
F2 G | G2 F | G B B | B3 | B2 c | d c B | d2 G |!
G c c | F3 | G B A | G3 | c c B | G2 A | G2 F ||


